X:18
T:Athole Cummers
R:Strathspey
B:The Athole Collection
M:C
L:1/8
K:E Minor
F|:E/E/E ~E2 E>FB>F|E/E/E ~E2 F<D A>F|E/E/E ~E2 D>FB>A|1
B<d A>d F>DA>F:|2 B<dA<d F<D D>d||
|:B<E B>A B<E E>e|B<E B>A F<D D>d|B<E B>A d>ef>e|1
d/^c/B/A/ d>A F<D D>d:|2 d/^c/B/A/ d>A F<D D>f||
e/e/e e2 d>fb>f|e/e/e e2 f>da>f|e/e/e d2 d>fb>f|g<eb<e df/g/ a>f|
g>eb>e g<e b>e|g<e b>e df/g/ a<f|g<eb<e d>ef>e|d/^c/B/A/ d>A F<DD<d||
B<E B>A B<E E>e|B<E B>A F<D D>d|B<E B>A d>ef>e|
d/^c/B/A/ d>A F<D D>d|B<E B>A B<E E>e|B<E B>A F<D D>d|
B<E B>A d>ef>e|d/^c/B/A/ dA F>DD||

